X:1
T:The Derby Ram (3)
M:6/8
L:1/8
K:C
 G| c2 c c2 c| c2 c c2 d| e2 e e2 e| e3- e2 f| g2 g g2 a| g2 e ccd|\
 eee d2 d| z4 z2| ccc c2 c| c2- c c2- d| eee eee| e3- e2 f| ggg g2 a|\
 g2 e ccd| e2 e d2 d| c3- c2||
